P6
64 80
255
uybmq]el[gn_lthr}t{âÇàôñè•¢ï≠©õ≥Øú∂±ù∂≥óÆ´è•†íånÇxeweer`_l[[jXaj^gi[dfWdhZdhVeeTcdS_aNaaOfeQgfUffUihTieQifUgdT`^NY[LVYLZ[L\^J\^M]]J]^L\aOXZH_^KffS`dQUXFZ[J\^OY[M`_L_cMY\KVWFSVBSWETVF\\MaaQ\]LhlYgkYhn\gp_jugr~såÖäòïí¶£ïÆ™ú≥∞û∑¥õ∏±ó±™ã§ù{êàsulugip`bi\bf[jj]imZbgVbgWclWimVkiTiiVdhRfgQjiRmjTlkUghQjoUhlSceP]`M\^L\ZMa`PbbS_`MbgPX_JZ^L_`Ma_MWYIOQDPRHRRGXSF]YJbaN^`LVYITVEX[I[\HZ[F[_IZ[JglWmr[kr^cm\hpdpxq{äÉÖúñèß§ïÆ´ô≥∞õ∑≥ò∑±ï±©å£õ~êàvsntfjp_flZgiZmn\ko\cgVabTbfVhiWolXljVadN\`N`aQfeQhjRjlSgmSelTdhRacOabNfcOjfShhUjjUkkU_bM_bN\_LXXGUYIOSDMODMQCOTDUUC[[FY]HPVDRUESVFQTDQVBY^HWZHlqYlrZcmVaiXci`nvn{âÇÜúñéß£ïØ´ô≥∞ú∂≤ú∂≤ó±™é£ûÄêäwÅwpuhko]lp[lo\lp\mq\dhWbcUcdVdgWjlXikV`eN^bNfhTmnTqrUmoThmShlUhjVfhSfhSmlUlmUllXmmXpmXliViiSbcM\_JZ]LYZK[[IX]HSYHX\LW\ITXFRUFUYKUXGSVEUWEYZGWXG^eR_eT]gVZeW_hamvo|âÅàúïîß£òÆ¨ö¥±ùπµûπ≥ò≥´å§ù}éàr}rirbgq\nv\qw^nq\ot[ioZijXmkYkkXnmVklSgiPnmWnnUrrVprXooWpr\nqZqtXqvVqvYpsVmrUhmSgjSolUtoYnpWlmSkkTfiTaeSegSgjRbgRgjWbbR[\L][JZ\JWYJXXLZ[LWYIWXKipXdlWaiX_k\amckyo}éÖäüòì®•ó∞Æòµ≥ú∫∂õπ≥öµÆèßüÉñäxÑsnyaqzbvdsx`uvbxyanqYlnVjlOnrToqTklQjkRmjUmlRtsWqsXosWttXtrXvuWxyVtvWptXxxZvu[qpXqrXnqXnqXorVvw[uv\mpWqpWrnVnkUklTklQnkSlfRcdSbaNhbRb_O`aO`bNnrZinVloZjr_fqcq|rêâäüöì©ßò±Øöµ≥ûπµüπ≥ú≤¨ì¶†àñç~átÄÇkÅf}Åfv~cuyauu[qrXqrXqtWrvXvvYvsZqoXqjUrnWvrYusVvtUsqUrrXuvZzy]yv]vtZzvZ{z^xy\yy[wvYtrYsrZxw\xw]lnTopVpqXjmVmmWklPpqRlmQjkSojRokTmkRnmTedNptXmpWrw`mu_jsas~rêàá†öî´®ö±Øú∂µ†π∂¢∏µõ∞≠í•°ãöêÅäyÜÖoàákÑÖi~Çez~axz]uuYssYvw\{}]z|ZwvZvrZvrVzw[zx\ywZ{xZuuXvv\yw\{{]wy]xy_{z_|z`zv\|y\vtWtqWvtZvw\tv^lnWprWrsXsqWxtWtrUurVspUjjQpkVplXqnWpkRijSqrWqu[ox`dmZinar{q}çÜÜüöè™¶ò≤Æõ∂≤û∏¥¢∑≥õ≥´íßüéõêÑäyàârââoÅÇh~Åd}~cyy\tvWvxZy{_}}^}~\|z_{x_xxZ||^~{`Å}b`|{]~x\Äz^~{^{{]{y\zy[xy\xvY|x\xtWssUsuVvuWvu[sqXwsXyuYxsVutWopUrpTvpVjiPojWmiUniTrmSrqVsu]nqYjoX_kY`m`lxo|åÜàüúê™ßô≤Æù∂≤û∏µû∏¥ò¥™í®ûéõäçêyåçráâkÅÇi}Çguz]vy\{|`{z_yy]||^{{^||az|`ÅÑa|}`{|bÇÄcÄ~_{{Y{xX}x[}z]y{[uvWzx[vvZuuXvsYwrXvsYsqWxvW{u[wv\zxZ{vZusYjlVllTqoWklTkmQplTkhNmiPtpUtqRmpVsuWpuYhq\fo`n|r~éâäüúî´©ó≥Øõ∑¥†∏∏üπ∂ôµ≠î™†ëùçëì|êçsäàjÖÜhÅÉa|y]É~aÖÅb|^Å_ÑÅ`ÜÑfäáhàÉbÜÄ`Ä}^ÅaÖÇbÇ]~]z{\zx]É}cz\~{[}|_zx[zxZvtWwvZ{w`~u^|vZxvX|x\|^{_wq[rkXxnU|sZspTmqPonSkiRljTroUxwYdjQgmUgpVcnXdpao|q}èàäûúì©™ò≥Øù∑≥†∏∂°πµüµØó®†ëúçèìyççnãâiäÜgÑ~aÇ|`ÖÑdÇÇcÅÄbâÜeÑácÜâhÑÖcÑÇbÜÅdÖ~cÑaÑÄ^áÄ_ÑÄa^ÅÇdÇÅd~|]ÅÄ`Ä}`{v]zuZuuUwyWyz[yy]{y_|x\}]Å`Äbyx[vrYyuXzw[ts[npTstXmmUpoWuqVxsXbhQcjTbkThp[ktbr}rÄèäåûùî™©ò≥Øûπ¥°∫∑°∫∑ù≥Æó®†êõèéízåçkããháÜcÑ_áÄcâÖeÜÑgâáiåãjääkàäkáÖfâÖfàÑeÉÅdÉÄbÇ]ÖÄ_áÉcÜÑdàágÑÇcÉÅbÉÅa|y_{v]vvWtxXx{Zzz\ww\|z^ÖÄdÉÇcÅÇb~~_vxZtsZyvY}x[yv[tsYvv[vuZwtZxrTsoQ_gPYbNZ`PcfYindrxrÇãáãüöî≠®õ±Ø¢∂∑§∫∫¢∏µü¥Æñ®†èõçéëzåäkçäiáÖeÑÇcäÜeäÜgçàkíâlèäkçäjâÜhâÜgäÖfçàháÑfÖÅeÉ^ÖÉ`ÑÖeÑÖdåäfäÜcÜÉcÄaxx\yw^vw[y{\}~`zz^wtZzw[áÅbâÉbÖÅb}{\wyZttZ{x\~z\~z\}z]}{_~zaxx_utYrnT]aQY_RZ`R]g\`mdlwoäÜçûùì´ßö≤∞†∑∑¢ππ†π∂û¥Øò®†èôäçêvçélâãiÇÄaÇÅfäâiååhëåiâÇ`áÉaçâeâÉ_áÇaäÑeèàkâÑfÇ}`É}aÑÉdÇÉcÑÖfÜÖfáÇdàÅeÇ~a}x]}}axy\wx\}|drvZrtV|{]ÖÉcÖÅcáÄe}z^vvZusWyyZ~|[Ä{YÅ}]ÅÄ_~|\yz\wv\soZ`fP^dQYbOW`Pag[sxnÉéÖçûúï™©ú±Øü∑¥ü∫∑üº∑ùµÆï©üéöäåéuåãjàÑcÉ`çÖièâiêéjÖÑa}\âÜhéäjáÇaáÇ`âÑbâÑdÉ^Ä}YÄ~ZÑÉ_âÇaäÑeâÑeàÅ`àÄaÇ|aÉd~cyu^ÉzdÉ}c{z^||^ÉÅ`äáfÉÅcÄ~_wvVxtXysX{xYÅ}[~zXÇ~[Ä~\z{Zz{\wv[srV]cM[_OZ`P\aSacYosjåÇå†õñ™©õ±Øû∏¥†∫∑üª∑ù∂∞ñ®¢éóçããxãâmÉÇdÄaãàiéçiÜÜd~}]Å~_âÖfàÑcÑÅ`àÅ`áÇ_ÖÉb~{]Ä|]ÉÅ`ÑÅbÜ~_ãÅeâÅeâÅcÜ`ÑÄaÖÇb~{`|xaÉg~}`}|]}}]ÇÇ^ÑÑb~z\{w[wwYsuZtt[yx\}x[}zYÅ`|{Z}yX~zZtqUqoU[_J[^LbdR`cU^cXmtl~çÖåûöï™®ò¥∞õπµ†º∏†ªµ†∂Øò©°èòçäãyàÖjÑÅbÇÅaáágÜÑhÉ~fÅ|b~{\Ä_ÑÅaáÅ`àÅ`áÄ`ÖÄaÇ}`ÇaÑÇcÑaÑbáÉeàÇdáÄ`ÜÉa^}_Ö~cÉ~dÖÇf~}_z{]||\ÉÑb~ÅbuvWvuYvtZutYsuXxx\|w[Ç~^ÅÄ`~}^~y[|w[pnTtrW^aH\`I]eM[bNeg[uyqÇçáâùöë™®ô≥∞ùπµ†º∑£Ω∏õµÆì©†åòåààwàÅhàÄbäÇbáÅcÅ`Ä~cwx[vvW~y]|aÑÇ`áÇaÉ~_Ç{]É}\áÅaàaÉ~`ÑaàÅdâÇbÜÄ_É}`Äz_Ç}bÖÑeÖÇaÇÇaÄ_}{\}y[ÖÇbÉÄbttXvvXwuVrpUupX}v\Äv\Ñy^Å~`Ä~^zx]vt[olSrqVT]H[aL[dN]cOdhZt{qÇéáä†õì¨®õ¥±úπµûæ∏üº∑õ∂Øë™†ãôåÜàsÑcÉÄaÜÇeÜaÅ}]|wZyrY|w]Äz_ÑbÖÇaâÉbà}`à|_âÉaÖ`}z[{y]{y]ÅÄ_Ç~[Å|Y|wW}w[~`ÅÄdÄ~aÅ`}^zx\|x]ÑÄ`ÉÄ_ww[uu[wvZttWwuXzuXzrYÉz^Å~`Ä~axw\upZtmYujRW\J[_LU_MT]M_eYmxm{êàà†õï¨©õ¥±üπ∂¢ª∏üº∑ö∂Æî©†çòåÇáp}}`ÉaÖÄbÄ~`}^~w[|x\~|_áÇdâÅbÜÅaáÑaäÖaÖÖbÅÇ`Ç~\}zX{zY}_~y\~|]qsUnnTxtYy^Ö{_ÖaÖÄb~y]zw[wtXw]Åzaxv[vv[{y_}z]}y\|vXÄuZÉw^Ñ|b{`|y]{w\tq\piSOUFNUFNWIP[N[cZivn{éàà†úñ¨™ü≤≤¢∂∂£∫∏üª∑ù∂±ò®¢ãïä}lÄy`É{`Çz]{\~{^~z_z{^}|^Åz^Ñ_Ç~_ÉÅ`ÖÇ`ÉÇaÄÅaÄ{[~vWÄyZÄ}_~{_zy]poTsoUxrZÄv]Ö{bÑbÅ|_zu\usYooUxqZ{u\tsWxw]yvZ|w\|^{{[z\Çy^Çz`ÅzaÄ{b}w]vpYogRLSDIQEMVHOXJZdXkvn|çáâ†úî¨´ù¥≥°∏∑£ºªûª∏õµ∞î•¢âìãz}kzw_{x[xwY{wY}vZ|wZ{uY|xZ|_}_xwZ~}^áÑbáÉcÅÄa}|^zx\zy_{w\}w]xv\rrUusVrqW~x`Å{_Ç}`}{\wuWuqVrnUtnSvqVusYzy^tpVwoW|w\xy[y{\|{_Ä|a~y_}y_zuXtpVpnWGQCIQFKRDOYJ^fXmvo~åáãüõì≠™ú¥¥°π∫°ºº†ºπö¥Æë¶°Çêäuykqq^tu[usXzrW}u]rpWvrU|wZ}z]st\qqV|{[áÑ`àÑcÄÅcz}\ywYxu[wtW|vYurUsqUtrVwsW}y]}yZ}xZ{tWwpStoUqnUsnQ|pWwsZtz[olSpfTvo[roZss\{w^Äxa}u_zx^yuZxqWqlQJSFKTEGQCKVH\eTmuj~ãÜåüùì´©ö≥±üπ∑°Ωπü∫∂õ¥∞è£ü~éÑqygqr[nlWomSrqUwv\us[uqXxvY|`ws[tnXy`áÖdÖÜeÄ`zz[xvXywYssUutVpqQrrUqtWsuWvvZvuYtsXrnUrlVroXsqZts[qqYtt[yx_rsZghRmjTniTvq]{u`}u\}x_|y^xuYprWgfOPUDJSFFOCTYLcfWouk}äÖâùöì´®ô¥∞ú∫¥ûΩπû∫∂õ¥Æå£ùzãÑpwhnn[jiTjkRmlRtu[xu`zr\}w[{z[vsTwoVy_àÇdÖÅb|_vtXurUqrUppSsoUrqUprUprVsrWrsYorWpoVplVokWsmXwrWwsWsqVusY|x_ww[llVpmXnlVtoY|v\xuXxtYxqWurVssXiiPMTEHQEJRDY_Oeh\qtn}äáä†úï´™ô¥±ú∏∂†ªªûª∏ô≥≠å¢ú{âÇqtikmXjmTlmUjjRrpWut[{x_z]|wZtpTumRÄz]áÄ_É^ytXrqVpqVomRomPspRurXsrZpoYqqYnpVnpXpnWrnYoiXpnYtsWwuXvqWurY}yaxy]lpWonXmiRsmS{sWxpUvnUtkSxnVzsYtpWMTFLQDNTHW\P]`Ylqk~ãÑäûöì¨®ñ¥Øúπ∂ü∫∑ú∏≥ïØ©â†ô{ãÇotgehVdgQfhRhhOlkRqrVyyZyyVsqUijRqnT~yY}{Z}{[utUloSmlSrmQtrSssUusXsrYqr\orZjkVolVplVhiTgiVjlVnnTqtYrs\utZ|y]||_rw]uu\qoUsqUqpRplQmhPjfNpjRolSsnWHO@DK@JPFPSK^`WjpgyàÅàûôê´¶î≤≠òµ±õµ≤ù≥∞ï®£áöëxã}ep^\`LabQefQikSlnPttX{x^yvYolPjfOtmWzpV}u\zt]tpXgiRlkSsqUrpQqoSnoTqpVrqWssWllSihPiePigShgWegRhjRjmUuv`xw^}y]{^||_}y\wsVspSrpTolUohUnhVheSbaNgdQEL>HN?NTBX]I]bRbj_o{sêâáûòå®¢è¨¶è™§ä•†Éöí|ãÇpzqgk^heUggRehNhjRomWwqW{vXyuWngPldQsmUtmTwrWwuZrmXkgNmjNnhNomPmnSnnTqpWvuYutXmoVhhWgdTlfTmgWijWejRflQuu^uu\xv\Ñ{`É}azx[ssVspTtqTstWusXpoUeeNdaMheQEMAHMCMQEOSFSYMT_V^jdjztqÜÇvçäzêåxçâráÑo}xlwphrjgl`hhWhgQhfOeeOnmVupWxtUttRhhJmhOniNqlPrqTtt\fcOf`JhcKhcLohPnkPsrXyy[|zZwwZtu[olWhcPlcPokVgiTdgSmnYuu[tvYyw\Ç}bÄx]yv\rsYqqWrpXqoXtt[rsZhiRjeQrlUGK@FI>GNAJODMTLJVPMWUN\XRdbWfg]ij\hfYdcZb`]faaleanbbkZghUecOgdQqnVolSrnQonQeiLijPnjOrmQvrVxt[ieQeaNdaLgfPidQrlV}y^ÑÄdÉÅbÄ`}x\snVgcOpjTqnThjOhiQrpXzv\xx]yx^}x`x_~x]vvZmoUkhSpnYvv`nqZiiTigSsnVCD=FG?JN@JOBGNEALE<HA<GB:GC?JJAKKBMIENKKTOR\V_g_aladm[ggSfePigRjfPngQohQplQiiOomQtpRyuVyuXvsVgfM``LccMjjRnhTypYÉ~aÑÇcÜÖdÅÅ_}x[uqXppWupXlkRikPonSxsY}u\xqZyt_~wc~vbÖ~gwzahnXieVxp`}zhrp^hfTiiVso[CE:FI=DK>FOACLB>E@7?;7<:5=;0=92@;8A>=DCDLIOWQYbWahYdfUbdNabM^bK^aKcdLgeKmhRpjVqmVsqWvsYtuVopTigRdaNccPegRhhPuqU}z[É_âÜfÜÄaÄ{_|z_{z^tsVkjPkjUsoZvv[uuXsqYxvbwwd~|ji~Çns{dnoYzxa~zammYebRkjWliWDJ>CJ>FN?GL?@G?7C?1<91:6-:3-941;85=<8@??EAJOHR[QWcV[dU\^P\]NZ^LaaLc`JjdMnjRmnSnoSvsX{y[zz]xv\qpWkkPhlRdiQhhQspX|wZÑÄ_ÖÉaÑÑb}Ä^{|_yz_ru[llUljUrnXwrYytX}v[}u]zt^yv_}zdÅÅl{ju{dx{dvu_ro[olWjiTjiWDIAGKAFNBEJA?F>6@9-95-86+62+50-731:6498:?<BGBNSNX^SY`QW\LY\I^^LcaPd_JmfOsnVlnTmqVtxZ}~_}}[|yZywZutWopVnmVnjUrmXys\~{_Ä|\Ç^zy[zx\zy_qqYljTojTniTsmWztZ{uX{sYzpZwrZzw]zz_x|dy~fxyez|hyzdts[okUnlXBJ?HODINEHJD=F?2>6,8/,61(50*6.-7.0712755:9=D?JQHV]O\bP\`K[^H__I_^Ja^GkiNllPooUrsXux[yx\zx[yvX|xZssUkmPikOmkWllXts\yu[{x[{z]{y]|xZzvYssXmoUpoUnkSpnXsrZrsWttWvsYwsYvrVqqTtv\uu^yxcÇ~k~gwx^rqYpqYDN@HSDJSEINE=F>2>6,80+40*43+41+50,51.751:98D>DQFV^PadT`bPZ\IX]H``Ic_HkhMijLpr[rvXtxWzvYzvXzuX~wZroTljPrmTnlXnlZrnYupX{wZ|z[{{[}yY{uUtoRpoTqrVqoRxrVyrZsqYopWppTsnTpkSooUssWssZwv]usZts[tu\stZkpXMUGSWITXJLOE<C>2=8+62+42(43(41)4/.430542:69C<FQHT[N^`Q^^MZ[G^aLaaKdaKgdNniRtkVxs[uqYxqVyrVyrT|uZtqXnoXqr\hiUhhTomUvsU~xWÅzV}zZ|x\xsXtoUqmUniRplUwsX{tZrjSpgRpkUokVqjTqoVnqUrqXqpZkkVklXppYloWllWRWKXZMXZLNSG>H@2=8-72,40*13*32(31)43-75/859A;FOFS[NY_QY[NX[LZ^O_bMdfNfeMieNlgTpoWonVsoUxtW{xYwtXmlUpoZklXb`OkgSolSuoT|uVtoOwtVxsZvp\toZmjQliSplVys\wqYliRkjUnkWojUsnZmkWklWopZikWijZiiYdgUaeS_aOV[NV\MW[LMQD>H=1<5,72*62+3//51-52*62+75,954B;CMDOWMV[PV[NX[J\_KfhPikOkjMjgMhfRkmVkkTqoTxvVwuUqoSomUqnXjgQhbOmgPlhMrnQqpPniLuoTupVtqYonUhgOjgQrmXxs]roYjjUfiSihSljUqn\nkZojXojZli[kiZfdT_`P__R\]PZ^MV[IPUFKOCEJA6?8-84.75,42*72'50(53*75(950>;AIBPTFWZLY]K\_Ia`JmgMpkSnkTkfPlfTklVikRplUrpWroStqTttWilSebMlfPleMmfLljOiiMphOwnWspVtuYmmTcaOfdQrmWxqYwsZop[ghVabRddSeeUfgUfjSciTadQ`cP^bNYaM\bRZaP_^OZ]KV]KOXIELA7@61:3163040-60,6/,63+84,:6/?;<H@NSFY[O[_Q]aMbcOmdRlePjgQiiQmlRnlUklUqlWqkUsmTysZytZmhSgeTmhTfbMifOjePc`MifOqjQvlVvmXigS^`O_aQigSroWvr[up]kjXcdWadZ`dZ^aR]cL[dL]`OY[LY]K\aM^cP_dS]^O\^L]_PRUICJA5@6-:2)81(61,52,53)65+64.735<7@F>NSGYZM[\OaaQidQhcPgaPicQkhQjkPnlTsmWojUmkQspU|u\ztXspTkkTc^Lb_LheSifTdfQljUolUsnWrkWddWacW`aRaaRghVmo[lmYhiUfhVdfX]_RY_LU^FV]GUZITZFV[EZ]I[\JZZG^`R\^NX]NPUHELA7C9,;4)83)75*45+54+67,680995<9@GBPUJZ[Mb_QibRogTkiUedQgdQhdPkiRlkSolVefRiiUwr[xpXwqYtqYheO\YD_\IdbPfdQlgRwpX{w[zv\tqZlnYkkWgeQhgUlm\ln`egZacT_bRZ^PW]NT]KN[CR]DR[GSZGSYFW[IW\IUZC[^OW[LZ^OV[JLTF<H<2>6,94*85+88.96/88.8<3;=:@=KOG^_PadPfgSigSliUjjSokWkfSgePhfRgfRefRcdQmmWpnVoiTrnXljV_`NYZG[\I^`MbbPnkU{w^}y`vrZqpYghXigXklXijWfgY_cY\_RY\MWZMVYNV[MQZKNXGPZDQ[GQ[GQ\FX_JZ_L[aIUWMY]N^`O]bPSZJFOF>IC:D@:EE8GE;JH<JJ=KM>KJKRK_]PldSonWmpVjmUgjMhkPqnWpiTidM^[G[YHc`KfbKlhSddQjiUlnWhjUefT\[L]ZI^`L^`QklZyx^vuZssZjlScfPijUkjXbaV_aSY^NU\LUZLUYMY\NV[IU`OO]ILZCM[DQ`DQ`CVbIYcI_fLU\M\`OdcQ]_PU]NN[RJ^UJ_ZPcaSidYok^qpXomWoi`ogmocrnZtoUqnTmkTigSigTgeTedQ[[ITRCWUF]ZGa^MgdRedOlkUkjWjiXggUa_NdcQdeRbdQmlTurUusWnq[gjWcbTb_VYYOVVLWZIY\M[`QY_PV]NVbNT]HT\FP\HO]IT`JTdIVgMZhP]gNbhQX\O^aPcbR^^T_bT`j]cuig|tmÉÄràÉzèå~ñí{ñê{íãyâÅu}qtr`rlUnjSffPfeRfgWa`R\[NTTGOQBOSDTVG`]LidQiePihQghSgfVdbS^\NcdScdRbbQjhUolUnmUijYdfYccU``UY[RPSLQUIXZO^^Q^_O\aPZbNW_KU]KRZIT]IZbK]fO^gR\fNaiOfnV`aSbeS]`N`bSgi[nsgsÅwzèâÇöñä°ùê¶¢î¨ßí´•è¶†ÑòíxÖ|knagdShcSdbQdcPbcP[^MRUIMOCIM?JOBSVH_`Pb`P``OceSceT`cSa`Q^[Na`R`cT_`Q``PbbQbdRadS^bTZ_Q\aRZ_STXORULTVKXZLY\MY^N\aR^cR]aOX^MYcP]eN`hP]hP^hMeiOioW_cS`bU^aQbeThl_rwpzáÖÇôîå•°ï¨®ö≤≠ú∂Øö¥ÆóØßã†ö}áÅfh^]\Na_R]^R_`PacOV[IINDDGAFLDMREV[F_bOZ\M[]O_bS\^Q\]NYZKXWL_]P[^OX[MY\N^]Q\^P`bT\aQW^MZaPW_LQXHSWLVYKW[JZ^L_bNceSaeRdgVfhVdjUbgP]cN\hO]fIcjPfrY]bP_dQ`eRbfUgk^qwmâÜãúòí®¶ô∞Æù∂≤ü∫µû∏≤ô≤™ç†õ|áÅhi^[ZLWZMX\K^`O[ZHOSFBLBBNAGPDMQGWYKW\LY]P[^S\bSVXLXXLSTHQVJUZOUYNVWMW[MZ]K\^L`bP`bS[_RT\POYJLUDOTCTVB__LbbPigSkhSbdNljWroYmmVfhR^eQ^jU^gPbiPfpXa`Q`bO]bN`fRafYjso{äáãûõî¨©ö¥±ùπ∂ü∫∑ü∏∂ö≤Æå¢ùyàÇglaXYMRVJVYKWWJUWJORHKPELQCKREOSISVHX\OZ_R\dR^fO^bP\^PTWMQWKSWMQTJPUIPUEVZGX^K^cNbfS`bRY^JT[FLU@KTCTYG_bNegQhiQhiRbeNpoUwsZtr]kkYhkXakU]gQcmTfmW]]M^_N[_LZ]M^aXjrn}ââåüùî≠©ôµ∞ùπ∂°∫π†∏∏ô≥Øä§ùxàÇbg`VVKTUJQULRTLTWKSWHQVETZITYITWI[_N^dO`dPceRbbNfdPbdR\_RY^PTYMRVITWFTXDV]F_fMagRdeVfeTcfRX^LJRAHO?UXIbbNfdMgfPfhSgeOmmTprZrv_otZmq[hlYajSbnUfpZZ]PZ]NY[KTYKY]Uipk{àÜâüùí≠™ñµ±õ∫µûª∏üπ∂ö¥Øä£ùsáÄ[f[SXJSVKPSKOSHLTENTEUZKZ^L[_K^aOdeTehUcfPddQ`cNhkSikUihUbdQ]`P]_M\_IZ[H^]IefQghSkjUpnXjiV\_NMSELQBVZG\]KbcOcfQafQffPmjTqnZst]ouYhoXfmYgmYioWdkSZ^OX[KWWJTUKY_Xfpkzåáà†ùë´´ò¥≤ùª∂†º∏°ª∏ò¥≠ä£ùsàÅ^j`U[MPWGOSFKRFKSFNTEW[K[^MabNjjVmmWikWgiW_cPjlWroZrp\vu`koUbgNgfQbaM\^JaaKkfRmkWmnWoq[dgXX[PSVLQUFTZFY\KfgSggSefUffRolUqmYllWgkUfmZemYehUkjWejTVYLU[LUZL[`R\aWhqm{äáàûõì¨™ò¥≥ùππüº∏ûº≥õ∂Øé§ûxâÅ_m_T^JSYETVIOUGMTFPVEW[L^`QlgXvr^pqYnnYjhWok\xr[yqXwpXyt[lpUloUloVhkUdfQcfOlmUprWrsZssYjjV`aR[]P]`R]cP`dMijUddQifRpkTppWilSilVhkWdiUbgTdgUimXlqXVXKSWITXJZ]LY`Terlyåâã†üì≠™ö¥≥°π∏°ºπùºµö∑Øç•†xçÜcseU_LSZGV[IUWIMVCRXCWXF_^Lqq\xycru\oqYts]su[vu[toXsnUysXppTnoUrqYrp[lkXjkUpqZss[us[xtZts[hjUbdPffSfdRjgTljVomXqoYrrXrtZtx]tw^koWgmUhmUkmVklWilVTXGTXITYLX\N[_Wjpl~ãáå°üî≠™öµ≤†π∑¢ª∫üº∑õ∂Øè•†}èÜhrd\cQY_KY^JVXHPVCTZDX[GeeNqrWyz_uvZxy^ut]sqVonRljTplVvoVnmPpnUqmWpkSkdNlgSplTrpUtsYzx]vt]kjUkjSifOfbLmfQtmUwpXtnYusZ{|`}Çevz_pqWnoVppVqpVigPihSQXAVZGX\KXYN\_Zmro}åàå°†ïÆ≠öµ≤†∫∑¢ºπüª∑ú∂Æíßü~éÑirc_bP_aM`_N]\LUXFU[G\_JhiOkoStuZ|z_Ä|bzt^qjVa^Ia]LjcTjfUffThfTebRc_Jf_IhdOjgQmlUtsZyx\ooWmiTkeSd`NfaMkePqlTplUomUuu\~{aÇ~exu_kiV`aOefPedLdaIebLUYCVZGXYH^^Q]bZisl~çäç†°ò¨Øùµ∑†∫∫°Ωπ°ª∑û∂∞ëßü}èÖjrdcdThiWfgSa`N]\H]]HhdMniOhhMpqW}{cÇ|frqY`cM]]L][Q\[Q[\T^_U]_SYZL_]Nd`QfaOifRllVtqZvsVnoUljSheQbbPebOifPnjSplToqVts\|y`vs]a`QUWFTWE\[Ka_K]]J\]HVXEWYD^^K\^P]_ZmsnÇåâë†üõØÆúµ∑û∫ª°øºüΩ∂ù∂±ì•°ÑéÜpudmlUnlUjjUhhVbaNeaQe`Qc_LgfMsrXwv^xu_sq_ilZadP[[NZYRUUPXZSV[OTYI[^NffUigQofSumXus[x{]vy\opXihVeaTbdSdgPkhRolUmlVvrZrqX``NRSHTTFYWF_]KY[J\^K`cQTSCZZJegXfl_df`msoãâå†üó≠≠ù∑∑°ªª£Ωº†Ω∫ù∂±ë•†ÅçÖsvgtp[tsYopXjhShdRb_LYXG\\IhgOkgRmgUniUpjYkhYZ^NWYNTVLVXPX^RZ`Q\`QbcSnkVjgSokUupXwqY|w[zvZsnVlgRfaNcdQ`_K`^M[]P_`ThdWbaSYZMUUJVQDZWF^[J[[K\`Q^aQXRFedVsxlluk`faiqn{ãàè¢°ñ≠Æù∂∂£Ω∫•æº¢æ∫õ∑±é•†}äÖprhpmZrtZooWgfPheOYYIWUHa]PfcSdbSc^Rd_RecUcdV_aV]`T\^P^`RdhVilXhhVkhVslVolUpoVomVroYusXroTlhPgdNaaL__MWVJXWOUWN^\Q`\R[[PYWLYVJXUFY\J\_NY\L^aS^bQYVHdaSon\egY]_Xhnkzãàç£¢ïØØú∑∂£Ω∫£øΩüæ∫ô∑±å•ûyàÇkneiiUijSeePceO_^I^YJ]YH_^Lb`Q[\PY[O^^NgfTnr\qt`fjV`dOdfSno[nq\llZmjUqlTvpZooXllWkkUddLbaI`_I_]Ia^K]^LY\O\[O\ZN^]P]ZQ[[P\\Q__Oa^OacT[^NV[LZ^P\bNTTH`[OicQX[KXYWgnm|åãé£°ñ≠Æû∑¥§ºπ£æªüæªö∂±ã¶†râÇal_^^P`^Pa`PccPb]Mb]I_\I[]JY\KZ[O]^S_aSihXmp\hn[ggVggVjlZmnXmpZolXmhUqmYuoZnkYcdRWZKTWNPRGUUDZVG`[NbcWZ_P\]P`bS^aPY]OZ_T`aYaaU[[NUYLQWJPWJU[NSXJ[]N`aSddTbaUcf`muq~çäç¢†ï≠≠õµ¥ûª∫†Ωº°¿ºô∑±éß†zåÑgofbdY__S\[LZZH_YJ`ZKa^NgcQb_O`bQceW_bSbcTefUfdUlgXmiXmlZjiWffRbeOgfOqlVqkUgeMY]HR[JSYKOWJSUIYYL]`UY`TSXNY\RX]SOWONXQU^TW`QRXKMRGRVJW[KY^M\`PX\LbdTkk\lmZegYad]isn{çââ£üïÆ¨ö∂¥ûΩΩ†øøüøΩõ∑≤î©•àóëzÉyszlkna__QYXI_\Lc_NibSkcSlfRomWefTbbQcbRfbSjdSjcQjeTbbR[]MZ\L[]L^`OcdRcbO\ZKWXJWZNWZNV[N[ZN][OZ[RXZUQUQRXROWSKSPNXRV^TY_PY^M\`QccSdfPdgQbeQehSgeUliVghR[[LZ\Whrnzéãâ§†îÆ¨õ∂¥üºª£øæ°øΩù∑¥ñ´ßäöìÉå|ÇqnqcabR]^JcaNieTnfWpjVrmXmiWa^O`_O]_P__OebOgeRddSXYLQVGSVGWWH[\LZ]LY]KXZOYYO[YMVWKTXMXXPUWRTZRS]URZSW^XSZUQ[SZcXcgWhiTfgPacO^\J]\IWWGVXI\]N^\Nc`N^[IXVJ\^Xlur}èåã£üîÆ´õ∑≥üΩ∏£øº¢æªõ∑±è©¢~ìçqzqji]fdX]^QaaRjgTlgVohVspXon[ddS]\I_^M`_Qb`PmiWlk\`bWUXQTWNTYKX\L\^L`aP`bR^`R\[QZUNOQKNRMPSRNWRT_UWbWZdY[eX[bT[cUafUa`P\YJXUIMNEHMBFK@FKCGLHJNHX]NX\ORSKSVLZbYmuoçäà°†íØÆö∏¥üª∏°Ωª°Ωªú∑≥ê¶†Äçàqslmn_kkYhhUjiXkgThaTkhWvv^loVacN_^Pc`P`^M`bKcfP_aQZ^RX\TY[RV[MV[J]_O^`O[_PX\OTYOPUOLUNKUNLVQNXTT_VWcSajZ]eUV`PU]STWMNQJLOIHKEFMECKEAKECKGKNNENKabS\]PXWNY\S]d\pztêåâ£üìØ´ù∑¥¢ª∑£Ωª°º∫ú∂≤ê•†ÅçàwzmpoXnlUjgUkiUklTmnVqr\mpZbdT[^M[\NXVLZUL_YK]]IX]KW\QV[QSWOUYRVZSY[SWYOV[RSXQRUROUSHUQHVQJURQYT[aYaeXcgWZ_RRWNMQGNSKQWQOURKROJTQIQOGNMJRPMUSGQPghWfeVaaQabVgkbp}u}êåç§°ïÆ≠ü∂¥•ªπ£øΩüΩ∫ú∑±ëß°ÄéásxjolXnjVjhUjjUiiRihSgdVa`UY[OUYKUXJSSJVUKXXKVZKZ^OZ[PSXNSVMUYOTXOTWPTXSU[WS]VO[UKWSESNGTOJVTOYVX_XZ_VTXNLRKKOKLQMMXSP\VMZUHXTGYSHUQHSPFURGUSHRPmnYkkWgiWfgYgh_p{u~ëçå£°îÆÆõ∑µûª∫û¿ºûø∫ú∑≤ê¶°|ãÖlshjjZjhUecSb`QebS\ZNXVMUSMQSKRTITTITTKTWNUWPW[RZ\QTUKNRKPVOOXMPXLQWOS[SS]RXbWP]UJXSHVSJXUHYSJVQJSOGSMEPJGRLLUPMVSQ^WPbVKZRGWRDVOCTPDTQCWSBTSHNPwt\wsYrs[dfXcg`p{uíçè£üïÆ≠ö∑µùº∫û¿º†ø∫û∂±ë§°{àÖkqhbdU]`R_aU\]PWYJRSGVXLOSJMQIRTITULVXOVWOWXQW[PUWNPQKNQLPXOP\NM[PLXQLWQT\XOWUKTSJWSIXTIXVLWSITOFSN@QKBQJFUOGUSJWWM\TIXNHSNHQNDQOHWSKZUFUSESUIXXyvbzv^sr]kk[npfyÇzÉìçê°°ó¨≠úµµ†∫π¢Ωª§Ω∫û∏∞éßü}éÜinbabP`aQZ\RW[Q[^Q\`RUZNUYOTZPQUKVVLWZPX[QX[RSYSRWOOUNQUROYTKZQHZQETRFTRGURHUQKURMTSGTRFURDSOAPM<OJ>SLARNHRRMUTJTQLYSJXSHSPHSSGTSJZUEWREWVHY[EXUqqYoqYpr\ps`qvgyÇxÖíéè°†óÆÆû¥µ†ππüº∫†Ω∏ö∑∞éßü|éÖeob^aP`_OedUcdW]`R]_SX]PUYNPUKKRKMUOQYPS\PT[QPWQQVSPYPOWOOYSKZPDWLETNFSNGSRGTRISRKSRFQOFQOBMLBNNCPPCURBSPETRGTRLSQPZTP[UIURFSRFRPHURGWUDWVDVVFYUklSkoVimXgm[hnbt|sÄèâã¢úñ≠≠û¥¥†π∏ûºπ†º∑ù∑∞é¶ûwäÇ_h`VYM^`QabV[\UVYSTXPQXNQYPPWQIVOLWQNZSM\SPZQOXRRYUPYRNXQOWRNUPJTPFUQESQHSSKSTHRRGOOCNMBOMDPMDROERPDSOASNCUQFSOLSQQZUNZSIURGSRDTPGXVGWWEUWFXYEXXdgO`bM\_N[`T`b\otp~çâå§üï¨¨ú≥≥ü∫∑üª∏°ª∑õ∂Øåß†uäÖ_icX_V[aWS\RLVNHVNIWPHVQNWRKXQJXTJWTIVRJYSO\SP[RQXQNXQKWRIVNMYSLYUEYSBTSFVTKWTHRPBNN?OM?QNCRN@PN?NLCPNAPMBNMGQNLSPQXUJVRDVSFVTHWTFXWEWXGWVGVUBWVV]JXZKZ]LZ]P_a\purÑééè°üó≠¨õ¥∂ù∫∑üºπ£ªΩú¥±é¶¢xéábsh]f\X`VN[TJYSFSODSNKWQLYUIYZHXWGVSJWTLXPLXLKTMKRNHPNFSQKWRL[VHXTJWTHUULVVKTRJSRDRS?QOBPP@OM@OMCPPALH?JFAMJAPNBROEUTEUSDVUCUUGUXKXYHWWEXUDVSIXY